svg/teams/teamsWaves-m.svg

<svg viewBox="0 0 1200 900" xmlns="http://www.w3.org/2000/svg"><path d="M0 396l50 20c50 20 150 60 250 61.5s200-35.5 300-43.7c100-8.1 200 12.5 300 32.9 100 20.3 200 40.3 250 50.3l50 10v374H0z" fill="#ffb6b6"/><path d="M0 585l50-8.3c50-8.4 150-25 250-20.7 100 4.3 200 29.7 300 32 100 2.3 200-18.3 300-20.7 100-2.3 200 13.7 250 21.7l50 8v304H0z" fill="#ffc9c8"/><path d="M0 643l50 13.5c50 13.5 150 40.5 250 40.3 100-.1 200-27.5 300-35.6 100-8.2 200 2.8 300 0 100-2.9 200-19.5 250-27.9l50-8.3v276H0z" fill="#ffdbda"/><path d="M0 791l50-1.8c50-1.9 150-5.5 250-17.9C400 759 500 738 600 743.7c100 5.6 200 38 300 57.5s200 26.1 250 29.5l50 3.3v67H0z" fill="#ffeded"/></svg>

<svg id="visual" viewBox="0 0 1200 900" width="100%" height="100%" xmlns="http://www.w3.org/2000/svg" xmlns:xlink="http://www.w3.org/1999/xlink" version="1.1"><path d="M0 396L50 416C100 436 200 476 300 477.5C400 479 500 442 600 433.8C700 425.7 800 446.3 900 466.7C1000 487 1100 507 1150 517L1200 527L1200 901L1150 901C1100 901 1000 901 900 901C800 901 700 901 600 901C500 901 400 901 300 901C200 901 100 901 50 901L0 901Z" fill="#ffb6b6"></path><path d="M0 585L50 576.7C100 568.3 200 551.7 300 556C400 560.3 500 585.7 600 588C700 590.3 800 569.7 900 567.3C1000 565 1100 581 1150 589L1200 597L1200 901L1150 901C1100 901 1000 901 900 901C800 901 700 901 600 901C500 901 400 901 300 901C200 901 100 901 50 901L0 901Z" fill="#ffc9c8"></path><path d="M0 643L50 656.5C100 670 200 697 300 696.8C400 696.7 500 669.3 600 661.2C700 653 800 664 900 661.2C1000 658.3 1100 641.7 1150 633.3L1200 625L1200 901L1150 901C1100 901 1000 901 900 901C800 901 700 901 600 901C500 901 400 901 300 901C200 901 100 901 50 901L0 901Z" fill="#ffdbda"></path><path d="M0 791L50 789.2C100 787.3 200 783.7 300 771.3C400 759 500 738 600 743.7C700 749.3 800 781.7 900 801.2C1000 820.7 1100 827.3 1150 830.7L1200 834L1200 901L1150 901C1100 901 1000 901 900 901C800 901 700 901 600 901C500 901 400 901 300 901C200 901 100 901 50 901L0 901Z" fill="#ffeded"></path></svg>
